app/img/_src/pays/item-2.svg

<svg width="50" height="50" viewBox="0 0 50 50" fill="none" xmlns="http://www.w3.org/2000/svg">
<path d="M39.7494 37.6191C39.3062 37.3116 38.6977 37.4222 38.3905 37.8654C38.0929 38.2951 37.7556 38.7129 37.3875 39.1073C37.1409 39.3719 36.8017 39.6908 36.4325 40.0049C36.0218 40.3545 35.9722 40.9708 36.3217 41.3816C36.5149 41.6086 36.7896 41.7252 37.0659 41.7252C37.2897 41.7252 37.5146 41.6487 37.6985 41.4923C38.1291 41.1257 38.5157 40.7616 38.8159 40.4393C39.2478 39.9766 39.6448 39.4849 39.996 38.9778C40.3031 38.5346 40.1928 37.9262 39.7494 37.6191Z" fill="#199525"/>
<path d="M35.4958 41.9977C35.2667 41.5095 34.6855 41.2993 34.197 41.5283L34.1665 41.5421C33.673 41.7598 33.4496 42.3363 33.6674 42.8298C33.8286 43.195 34.1862 43.4123 34.5613 43.4123C34.693 43.4123 34.8269 43.3854 34.955 43.3289C34.9789 43.3184 35.0025 43.3077 35.0262 43.2967C35.5145 43.0676 35.7247 42.4862 35.4958 41.9977Z" fill="#199525"/>
<path d="M47.0825 2.53914H2.91747C1.30869 2.53914 0 3.84802 0 5.45661V32.8249C0 34.4334 1.30869 35.7422 2.91747 35.7422H23.4825C24.3542 39.4307 26.3256 42.043 28.0486 43.7166C30.5634 46.1598 33.4462 47.4608 34.5604 47.4608C35.6744 47.4608 38.5573 46.1599 41.0722 43.7167C42.7951 42.043 44.7666 39.4307 45.6383 35.7423H47.0825C48.6912 35.7423 50 34.4335 50 32.825V5.45661C50 3.84802 48.6912 2.53914 47.0825 2.53914ZM44.1405 31.7401C44.1406 36.8854 41.7655 40.2983 39.773 42.2555C37.4094 44.577 34.9849 45.4801 34.5604 45.5075C34.1358 45.4801 31.7112 44.5771 29.3476 42.2555C27.3552 40.2983 24.9801 36.8854 24.9801 31.7401V26.9309C28.3424 25.9585 31.4885 24.6278 34.5607 22.8789C37.5636 24.5833 40.8507 25.9733 44.1405 26.9303V31.7401ZM48.0469 32.8249C48.0469 33.3566 47.6142 33.7891 47.0825 33.7891H45.9779C46.0527 33.1347 46.0938 32.4523 46.0938 31.7401V26.1905C46.0938 25.7496 45.7985 25.3636 45.3732 25.2481C41.827 24.2851 38.2585 22.7845 35.0536 20.9086C34.749 20.7303 34.3718 20.7305 34.0669 20.9088C30.7712 22.8379 27.3957 24.2572 23.7476 25.2481C23.3223 25.3637 23.027 25.7497 23.027 26.1905V31.7401C23.027 32.4523 23.0679 33.1347 23.1428 33.7891H2.91747C2.38574 33.7891 1.95312 33.3565 1.95312 32.8249V16.2108H48.0469V32.8249ZM48.0469 14.2578H1.95312V10.3517H48.0469V14.2578ZM48.0469 8.3985H1.95312V5.45661C1.95312 4.92488 2.38574 4.49226 2.91747 4.49226H47.0825C47.6142 4.49226 48.0469 4.92488 48.0469 5.45661V8.3985Z" fill="#199525"/>
<path d="M11.7174 23.0471C11.1286 23.0471 10.5472 23.1662 10.0092 23.3931C9.48348 23.1704 8.90575 23.0471 8.29989 23.0471C5.87675 23.0471 3.90527 25.0184 3.90527 27.4415C3.90527 29.8645 5.87665 31.836 8.29989 31.836C8.90575 31.836 9.48348 31.7128 10.0091 31.49C10.5472 31.717 11.1286 31.836 11.7174 31.836C14.1406 31.836 16.1121 29.8645 16.1121 27.4415C16.1121 25.0184 14.1406 23.0471 11.7174 23.0471ZM8.29989 29.8829C6.95361 29.8829 5.85839 28.7878 5.85839 27.4415C5.85839 26.0953 6.95361 25.0003 8.29989 25.0003C9.64598 25.0003 10.7412 26.0953 10.7412 27.4415C10.7412 28.7877 9.64598 29.8829 8.29989 29.8829ZM11.9595 29.871C12.4233 29.1746 12.6943 28.3391 12.6943 27.4416C12.6943 26.544 12.4233 25.7088 11.9595 25.0124C13.1925 25.1343 14.1589 26.1772 14.1589 27.4416C14.1589 28.7059 13.1925 29.749 11.9595 29.871Z" fill="#199525"/>
<path d="M9.90692 18.6525H4.88379C4.34443 18.6525 3.90723 19.0897 3.90723 19.629C3.90723 20.1683 4.34443 20.6056 4.88379 20.6056H9.90692C10.4463 20.6056 10.8835 20.1682 10.8835 19.629C10.8835 19.0897 10.4463 18.6525 9.90692 18.6525Z" fill="#199525"/>
<path d="M12.7934 18.6525H12.7471C12.2077 18.6525 11.7705 19.0897 11.7705 19.629C11.7705 20.1683 12.2077 20.6056 12.7471 20.6056H12.7934C13.3326 20.6056 13.7699 20.1682 13.7699 19.629C13.7699 19.0897 13.3326 18.6525 12.7934 18.6525Z" fill="#199525"/>
<path d="M39.9202 29.4946C39.539 29.1135 38.9208 29.1133 38.5392 29.4945L33.3169 34.7165L30.5803 31.9797C30.1988 31.5986 29.5805 31.5984 29.1991 31.9797C28.8178 32.3611 28.8177 32.9795 29.1991 33.3608L32.6264 36.7882C32.8171 36.9789 33.067 37.0743 33.3169 37.0743C33.5668 37.0743 33.8168 36.9789 34.0073 36.7882L39.9201 30.8758C40.3015 30.4945 40.3015 29.8762 39.9202 29.4946Z" fill="#199525"/>
</svg>

<svg width="50" height="50" fill="none" xmlns="http://www.w3.org/2000/svg"><path d="M39.75 37.62a.976.976 0 00-1.36.245c-.297.43-.634.848-1.002 1.242-.247.265-.586.584-.956.898a.977.977 0 001.267 1.487 13.7 13.7 0 001.117-1.053c.432-.462.829-.954 1.18-1.461a.976.976 0 00-.247-1.359zm-4.254 4.378a.977.977 0 00-1.299-.47l-.03.014a.976.976 0 10.788 1.787l.071-.032a.977.977 0 00.47-1.3z" fill="#199525"/><path d="M47.083 2.54H2.917A2.92 2.92 0 000 5.456v27.368a2.92 2.92 0 002.917 2.917h20.566c.871 3.689 2.843 6.301 4.566 7.975 2.514 2.443 5.397 3.744 6.511 3.744 1.114 0 3.997-1.301 6.512-3.744 1.723-1.674 3.695-4.286 4.566-7.975h1.445A2.92 2.92 0 0050 32.825V5.457a2.92 2.92 0 00-2.917-2.918zm-2.942 29.2c0 5.145-2.375 8.558-4.368 10.515-2.364 2.322-4.788 3.225-5.213 3.252-.424-.027-2.849-.93-5.212-3.252-1.993-1.957-4.368-5.37-4.368-10.515v-4.81a43.708 43.708 0 009.58-4.051 45.22 45.22 0 009.58 4.051v4.81zm3.906 1.085a.965.965 0 01-.964.964h-1.105a18.02 18.02 0 00.116-2.049v-5.55a.976.976 0 00-.72-.942 43.08 43.08 0 01-10.32-4.34.977.977 0 00-.987 0 41.9 41.9 0 01-10.32 4.34.977.977 0 00-.72.942v5.55c0 .712.04 1.395.116 2.05H2.917a.965.965 0 01-.964-.965V16.21h46.094v16.614zm0-18.567H1.953v-3.906h46.094v3.906zm0-5.86H1.953v-2.94c0-.532.433-.965.964-.965h44.166c.531 0 .964.433.964.965V8.4z" fill="#199525"/><path d="M11.717 23.047a4.4 4.4 0 00-1.708.346 4.4 4.4 0 00-6.104 4.048 4.4 4.4 0 006.104 4.049 4.4 4.4 0 001.708.346 4.4 4.4 0 004.395-4.394 4.4 4.4 0 00-4.395-4.395zM8.3 29.883a2.444 2.444 0 01-2.442-2.441A2.444 2.444 0 018.3 25a2.444 2.444 0 012.441 2.442 2.444 2.444 0 01-2.441 2.44zm3.66-.012a4.37 4.37 0 00.734-2.43c0-.897-.27-1.732-.735-2.429a2.445 2.445 0 012.2 2.43 2.445 2.445 0 01-2.2 2.429zM9.907 18.652H4.884a.977.977 0 100 1.954h5.023a.977.977 0 000-1.954zm2.886 0h-.046a.977.977 0 100 1.954h.046a.977.977 0 000-1.954zM39.92 29.495a.977.977 0 00-1.38 0l-5.223 5.222-2.737-2.737a.977.977 0 00-1.38 1.38l3.426 3.428a.974.974 0 001.381 0l5.913-5.912a.977.977 0 000-1.381z" fill="#199525"/></svg>
